svgs/light/lips.svg

<svg xmlns="http://www.w3.org/2000/svg" viewBox="0 0 576 512"><!-- Font Awesome Pro 6.0.0-alpha2 by @fontawesome - https://fontawesome.com License - https://fontawesome.com/license (Commercial License) --><path d="M568.015 201.664C521.552 124.598 419.626 64 375.974 64C375.974 64 346.613 64 287.999 109C229.386 64 200.023 64 200.023 64C156.372 64 54.445 124.598 7.984 201.664C-1.354 217.074 -2.479 235.859 4.495 252.398C29.697 312.25 105.859 448 251.324 448H324.673C470.138 448 546.302 312.25 571.503 252.398C578.478 235.859 577.353 217.074 568.015 201.664ZM542.011 239.98C524.624 281.273 457.568 416 324.673 416H251.324C118.431 416 51.372 281.273 33.98 239.965C30.906 232.674 31.406 224.758 35.388 218.186C76.695 149.67 167.433 97.293 198.884 96.023C202.679 96.67 226.046 101.779 268.513 134.383C274.259 138.795 281.13 141 287.999 141C294.87 141 301.74 138.795 307.488 134.383C349.954 101.779 373.32 96.67 377.115 96.023C408.566 97.293 499.304 149.672 540.648 218.248C544.593 224.758 545.093 232.674 542.011 239.98ZM490.866 214.275C467.253 204.859 425.255 192 372.003 192L341.05 200.875C324.534 205.5 306.378 208 288.003 208S251.472 205.5 234.956 200.875L204.003 192C150.753 192 108.755 204.859 85.142 214.275C74.263 218.613 71.222 232.605 79.736 240.648C108.829 268.135 178.267 320 288.003 320C397.741 320 467.179 268.135 496.271 240.648C504.786 232.605 501.745 218.613 490.866 214.275ZM288.003 288C210.7 288 156.074 259.939 122.933 235.191C143.443 229.35 169.408 224.467 199.618 224.031L226.327 231.689C245.743 237.127 267.07 240 288.003 240C308.939 240 330.265 237.127 349.87 231.635L376.39 224.031C406.601 224.467 432.566 229.35 453.075 235.191C419.937 259.939 365.308 288 288.003 288Z"/></svg>

<svg xmlns="http://www.w3.org/2000/svg" viewBox="0 0 576 512"><!--! Font Awesome Pro 6.3.0 by @fontawesome - https://fontawesome.com License - https://fontawesome.com/license (Commercial License) Copyright 2023 Fonticons, Inc. --><path d="M568.1 201.7C521.6 124.6 419.6 64 375.1 64c0 0-29.37 0-87.99 45C229.4 64 200 64 200 64C156.4 64 54.4 124.6 7.942 201.7c-9.338 15.41-10.46 34.2-3.489 50.73C29.65 312.3 105.9 448 251.3 448h73.36c145.5 0 221.7-135.8 246.9-195.6C578.5 235.9 577.4 217.1 568.1 201.7zM542 239.1C524.6 281.3 457.6 416 324.7 416H251.3c-132.9 0-199.1-134.7-217.3-176C30.91 232.7 31.41 224.8 35.39 218.2c41.31-68.52 132-120.9 163.5-122.2C202.7 96.67 226 101.8 268.5 134.4C274.3 138.8 281.1 141 288 141c6.871 0 13.74-2.205 19.49-6.617c42.47-32.6 65.83-37.71 69.63-38.36c31.45 1.27 122.2 53.65 163.5 122.2C544.6 224.8 545.1 232.7 542 239.1zM490.9 214.3C467.3 204.9 425.3 192 372 192l-30.96 8.875C324.5 205.5 306.4 208 288 208S251.5 205.5 234.9 200.9L203.1 192C150.7 192 108.8 204.9 85.14 214.3C74.26 218.6 71.22 232.6 79.74 240.6C108.8 268.1 178.3 320 288 320c109.7 0 179.2-51.87 208.3-79.35C504.8 232.6 501.7 218.6 490.9 214.3zM288 288C210.7 288 156.1 259.9 122.9 235.2c20.51-5.842 46.47-10.72 76.69-11.16l26.71 7.658C245.7 237.1 267.1 240 288 240c20.94 0 42.26-2.873 61.87-8.365l26.52-7.604c30.21 .4355 56.18 5.318 76.69 11.16C419.9 259.9 365.3 288 288 288z"/></svg>
